X: 12081
T: The Bonniest Lass in a the Warld.
%R: air, reel
B: James Oswald "The Caledonian Pocket Companion" v.1 b.1 p.8
Z: 2020 John Chambers <jc:trillian.mit.edu>
N: The last half of bar 45 has "Part 2d" under the {e}d3B portion.
M: C|
L: 1/8
K: G
GA |\
B2D2 E2G2 | (cB)(TAG) E2(DE) | G2g2 (de)(gd) | Te4 d2(ef) |\
(gf)(ed) (ef)gB | (cB)(TA>G) E2(DE) | G2g2 (de)(cd) | TB3A G2 :|
|: (ef) |\
(gf)(ed) (ef)(ge) | (ag)(fe) (fg)(af) | gfga bgab | Te4 d2(ga) |\
(bag).e (deg).B | (cB)(TAG) E2(DE) | G2g2 (de)(cd) | TB3A G2 :|
|: (GA) |\
BdDG (TEDE)G | cBAG TE2(DE) | GBdg Bdgb | e4 Td2(ef) |\
g(b/a/ g/f/e/d/) egBg | cABG EGDE |
Ggfe dgcg | TB3A G2 :: (ef) |\
g(b/g/) d(g/d/) (Bdg)b | (ag)(fe) fd/f/ a(f/a/) | g(d/g/) b(g/b/) d'(g/a/b/g/a/b/) |
Te4 d2(ba) |\
{a}g3e d(g/f/e/d/c/B/) | (c<A)(B<G) TE2DE | Gg2(f/e/) (d/g/f/e/ d/c/B/c/) | TB3AG2 :: GA |\
Bd2D EG2B |
c(e/d/ c/B/A/G/) E2DE | (G/B/)d (B/d/)g (d/g/)b (a/f/)g | Te4 d2(ef) |\
g(b/g/) d(g/d/) eg/d/ B(g/B/) | (e/f/e/d/ c/B/A/G/) E2DE |
(G/B/)d (B/d/)g (e/d/c/B/) (c/A/)d | TB3A G2 :: ef |\
gde=f {f}e3e | a/e/c' a/e/c' {g}f3f | (g/f/)g (a/g/)a bdgb |
Te4 d2ga |\
(b/a/)g (g/f/)e {e}d3B | (e/d/)c (B/A/)G EGDE | Gg2(f/e/) d(c/B/) (A/B/c/d/) | TB3A G2 :|


